X:1
T:Title
%%score ( 1 2 ) ( 3 4 5 )
L:1/8
M:3/4
K:A
V:1 treble nm="Grand Piano, Staff 1"
V:2 treble 
V:3 bass nm="Choir Pad, Elven, LM"
V:4 bass 
V:5 bass 
V:1
 [=CE]2 [EA]2 [EB]2 | [E=c]4 [EB]2 | [Dd]4 AG | [EB]6 | [Ee]2 [=Ge]2 [Ge]2 | e3 d =cB | %6
w: By~Felix~Mendelssohn,arr~by~William~Dressler * *||||||
 A2 =c2 z B | [EB]6 | [=CE]2 [EA]2 [EB]2 | [E=c]4 [EB]2 | [Dd]4 AG | B2- [EB-]2 [^EB]2 | %12
w: ||||||
 [=Ge]2 [Ge]2 [Ge]2 | e3 d =cB | A2 =c2 [DB]2 | [=CA]6- | [CA]2 z2 z2 |] %17
w: |||||
V:2
 x6 | x6 | z2 z2 D2 | x6 | x6 | ^E4 E2 | E4 F2 | x6 | x6 | x6 | z2 z2 D2 | D2 z2 z2 | x6 | ^E4 E2 | %14
 E4 z2 | x6 | x6 |] %17
V:3
 [A,,A,]2 [=C,A,]2 [E,G,]2 | A,4 [=G,B,]2 | [^E,A,]4 [E,A,]2 | z2 G,4 | [=C,A,]2 [C,A,]2 [^C,A,]2 | %5
 [D,A,]4 A,D | =C2 A,2 [^D,A,]2 | A,2 G,4 | [A,,A,]2 [=C,A,]2 [E,G,]2 | A,4 [=G,B,]2 | %10
 [^E,A,]4 [E,A,]2 | [^E,A,]2 [=E,G,]2 [D,=G,]2 | [=C,=G,]2 [C,=C]2 [C,^A,]2 | [^E,A,]4 A,B, | %14
 =C2 A,2 [^E,G,]2 | [A,,A,]6- | [A,,A,]2 z2 z2 |] %17
V:4
 x6 | x6 | x6 | A,2 z2 D,2 | x6 | z2 z2 D,2 | E,4 z2 | E,4 z2 | x6 | x6 | x6 | x6 | x6 | %13
 z2 z2 D,2 | E,4 z2 | x6 | x6 |] %17
V:5
 x6 | x6 | x6 | E,4 z2 | x6 | x6 | x6 | x6 | x6 | x6 | x6 | x6 | x6 | x6 | x6 | x6 | x6 |] %17

